X:19
T:Cercle circassien
R:Cercle circassien
O:Irlande
Z:Transcrit et/ou corrigé par Michel BELLON - 2005-03-17
Z:Pour toute observation mailto:galouvielle@free.fr
M:2/4
L:1/8
K:C
V:1
"C"C>D EG|cB AG|"F"AD DE|"G"FG/F/ ED|"C"C>D EG|cB AG|"F"Ad "G"AB|"C"c2 c2::
"D"dA dA|dA A2|"C"cG cG|cG G2|"D"dA dA|dA AB|"C"cA GE|"G"D2 D2:|

%%footer $D   Galouvielle-MBe 2006 \nCercle circassien (Irlande)
